24x24/actions/irc-unvoice.svg

<svg viewBox="0 0 24 24" xmlns="http://www.w3.org/2000/svg"><path d="m16 5-12 3.418v6.164l1 .285v2.433l6 1.7v-2.424l5 1.424zm-1 1.328v10.344l-10-2.848v-4.648zm-12 2.375-1 .285v5.024l1 .285zm14 2.297v2h5v-2zm-11 4.152 4 1.139v1.426l-4-1.133z" fill="#da4453"/></svg>

<svg xmlns="http://www.w3.org/2000/svg" viewBox="0 0 24 24"><path style="fill:currentColor;fill-opacity:1;stroke:none;color:#da4453" d="M16 5 4 8.418v6.164l1 .285V17.3l6 1.7v-2.424L16 18V5zm-1 1.328v10.344L5 13.824V9.176l10-2.848zM3 8.703l-1 .285v5.024l1 .285V8.703zM17 11v2h5v-2h-5zM6 15.152l4 1.139v1.426l-4-1.133v-1.432z"/></svg>
